assets/sonr-icons/trash-can.svg

<svg xmlns="http://www.w3.org/2000/svg" width="24" height="24" fill="none" viewBox="0 0 24 24"><path fill="#000" d="M7 8V18C7 19.105 7.896 20 9 20H15C16.105 20 17 19.105 17 18V8H19V18C19 20.209 17.209 22 15 22H9C6.79 22 5 20.209 5 18V8H7Z"/><path fill="#000" d="M10 11C9.448 11 9 11.448 9 12V16C9 16.552 9.448 17 10 17C10.552 17 11 16.552 11 16V12C11 11.448 10.552 11 10 11ZM14 11C13.448 11 13 11.448 13 12V16C13 16.552 13.448 17 14 17C14.552 17 15 16.552 15 16V12C15 11.448 14.552 11 14 11ZM8 6H5C4.448 6 4 6.448 4 7C4 7.552 4.448 8 5 8H19C19.552 8 20 7.552 20 7C20 6.448 19.552 6 19 6H16V5C16 3.343 14.657 2 13 2H11C9.343 2 8 3.343 8 5V6ZM10 5C10 4.448 10.448 4 11 4H13C13.552 4 14 4.448 14 5V6H10V5Z"/></svg>

<svg xmlns="http://www.w3.org/2000/svg" width="24" height="24" fill="none"><path fill="currentColor" d="M7 8v10a2 2 0 0 0 2 2h6a2 2 0 0 0 2-2V8h2v10a4 4 0 0 1-4 4H9a4 4 0 0 1-4-4V8z"/><path fill="currentColor" d="M10 11a1 1 0 0 0-1 1v4a1 1 0 0 0 2 0v-4a1 1 0 0 0-1-1m4 0a1 1 0 0 0-1 1v4a1 1 0 0 0 2 0v-4a1 1 0 0 0-1-1M8 6H5a1 1 0 0 0 0 2h14a1 1 0 0 0 0-2h-3V5a3 3 0 0 0-3-3h-2a3 3 0 0 0-3 3zm2-1a1 1 0 0 1 1-1h2a1 1 0 0 1 1 1v1h-4z"/></svg>
